images/54705184.svg

<?xml version="1.0" encoding="UTF-8"?>
<svg xmlns="http://www.w3.org/2000/svg" xmlns:xlink="http://www.w3.org/1999/xlink" width="300pt" height="300pt" viewBox="0 0 300 300" version="1.1">
<defs>
<g>
<symbol overflow="visible" id="glyph0-0">
<path style="stroke:none;" d="M 0.640625 2.296875 L 0.640625 -9.171875 L 7.140625 -9.171875 L 7.140625 2.296875 Z M 1.375 1.578125 L 6.421875 1.578125 L 6.421875 -8.4375 L 1.375 -8.4375 Z M 1.375 1.578125 "/>
</symbol>
<symbol overflow="visible" id="glyph0-1">
<path style="stroke:none;" d="M 1.28125 -9.484375 L 3 -9.484375 L 7.203125 -1.546875 L 7.203125 -9.484375 L 8.453125 -9.484375 L 8.453125 0 L 6.71875 0 L 2.515625 -7.921875 L 2.515625 0 L 1.28125 0 Z M 1.28125 -9.484375 "/>
</symbol>
<symbol overflow="visible" id="glyph0-2">
<path style="stroke:none;" d="M 5.125 -8.609375 C 4.1875 -8.609375 3.441406 -8.257812 2.890625 -7.5625 C 2.347656 -6.875 2.078125 -5.929688 2.078125 -4.734375 C 2.078125 -3.535156 2.347656 -2.585938 2.890625 -1.890625 C 3.441406 -1.203125 4.1875 -0.859375 5.125 -0.859375 C 6.050781 -0.859375 6.785156 -1.203125 7.328125 -1.890625 C 7.878906 -2.585938 8.15625 -3.535156 8.15625 -4.734375 C 8.15625 -5.929688 7.878906 -6.875 7.328125 -7.5625 C 6.785156 -8.257812 6.050781 -8.609375 5.125 -8.609375 Z M 5.125 -9.65625 C 6.445312 -9.65625 7.503906 -9.207031 8.296875 -8.3125 C 9.097656 -7.414062 9.5 -6.222656 9.5 -4.734375 C 9.5 -3.234375 9.097656 -2.035156 8.296875 -1.140625 C 7.503906 -0.253906 6.445312 0.1875 5.125 0.1875 C 3.789062 0.1875 2.722656 -0.253906 1.921875 -1.140625 C 1.128906 -2.035156 0.734375 -3.234375 0.734375 -4.734375 C 0.734375 -6.222656 1.128906 -7.414062 1.921875 -8.3125 C 2.722656 -9.207031 3.789062 -9.65625 5.125 -9.65625 Z M 5.125 -9.65625 "/>
</symbol>
<symbol overflow="visible" id="glyph0-3">
<path style="stroke:none;" d="M 1.28125 -9.484375 L 2.5625 -9.484375 L 2.5625 -5.59375 L 7.21875 -5.59375 L 7.21875 -9.484375 L 8.5 -9.484375 L 8.5 0 L 7.21875 0 L 7.21875 -4.515625 L 2.5625 -4.515625 L 2.5625 0 L 1.28125 0 Z M 1.28125 -9.484375 "/>
</symbol>
<symbol overflow="visible" id="glyph0-4">
<path style="stroke:none;" d="M 2.5625 -4.53125 L 2.5625 -1.046875 L 4.609375 -1.046875 C 5.304688 -1.046875 5.816406 -1.1875 6.140625 -1.46875 C 6.472656 -1.757812 6.640625 -2.203125 6.640625 -2.796875 C 6.640625 -3.390625 6.472656 -3.828125 6.140625 -4.109375 C 5.816406 -4.390625 5.304688 -4.53125 4.609375 -4.53125 Z M 2.5625 -8.421875 L 2.5625 -5.5625 L 4.453125 -5.5625 C 5.078125 -5.5625 5.539062 -5.675781 5.84375 -5.90625 C 6.15625 -6.144531 6.3125 -6.507812 6.3125 -7 C 6.3125 -7.476562 6.15625 -7.832031 5.84375 -8.0625 C 5.539062 -8.300781 5.078125 -8.421875 4.453125 -8.421875 Z M 1.28125 -9.484375 L 4.546875 -9.484375 C 5.523438 -9.484375 6.28125 -9.28125 6.8125 -8.875 C 7.34375 -8.46875 7.609375 -7.890625 7.609375 -7.140625 C 7.609375 -6.554688 7.472656 -6.09375 7.203125 -5.75 C 6.929688 -5.40625 6.53125 -5.191406 6 -5.109375 C 6.632812 -4.972656 7.125 -4.691406 7.46875 -4.265625 C 7.820312 -3.835938 8 -3.300781 8 -2.65625 C 8 -1.8125 7.707031 -1.15625 7.125 -0.6875 C 6.550781 -0.226562 5.734375 0 4.671875 0 L 1.28125 0 Z M 1.28125 -9.484375 "/>
</symbol>
<symbol overflow="visible" id="glyph0-5">
<path style="stroke:none;" d="M 5.34375 -6.015625 C 5.207031 -6.085938 5.0625 -6.140625 4.90625 -6.171875 C 4.757812 -6.210938 4.59375 -6.234375 4.40625 -6.234375 C 3.75 -6.234375 3.242188 -6.019531 2.890625 -5.59375 C 2.535156 -5.164062 2.359375 -4.550781 2.359375 -3.75 L 2.359375 0 L 1.1875 0 L 1.1875 -7.109375 L 2.359375 -7.109375 L 2.359375 -6 C 2.597656 -6.4375 2.914062 -6.757812 3.3125 -6.96875 C 3.707031 -7.175781 4.1875 -7.28125 4.75 -7.28125 C 4.832031 -7.28125 4.921875 -7.273438 5.015625 -7.265625 C 5.109375 -7.253906 5.21875 -7.238281 5.34375 -7.21875 Z M 5.34375 -6.015625 "/>
</symbol>
</g>
</defs>
<g id="surface33213">
<rect x="0" y="0" width="300" height="300" style="fill:rgb(100%,100%,100%);fill-opacity:1;stroke:none;"/>
<path style="fill:none;stroke-width:1.2;stroke-linecap:butt;stroke-linejoin:miter;stroke:rgb(0%,0%,0%);stroke-opacity:1;stroke-miterlimit:10;" d="M 73.03125 89.8125 L 66.96875 122.9375 "/>
<path style="fill:none;stroke-width:1.2;stroke-linecap:butt;stroke-linejoin:miter;stroke:rgb(0%,0%,0%);stroke-opacity:1;stroke-miterlimit:10;" d="M 66.96875 122.9375 L 92.625 144.75 "/>
<path style="fill:none;stroke-width:1.2;stroke-linecap:butt;stroke-linejoin:miter;stroke:rgb(0%,0%,0%);stroke-opacity:1;stroke-miterlimit:10;" d="M 64.402344 131.15625 L 84.925781 148.605469 "/>
<path style="fill:none;stroke-width:1.2;stroke-linecap:butt;stroke-linejoin:miter;stroke:rgb(0%,0%,0%);stroke-opacity:1;stroke-miterlimit:10;" d="M 66.96875 122.9375 L 51.109375 128.59375 "/>
<path style="fill:none;stroke-width:1.2;stroke-linecap:butt;stroke-linejoin:miter;stroke:rgb(100%,0%,0%);stroke-opacity:1;stroke-miterlimit:10;" d="M 51.109375 128.59375 L 35.25 134.253906 "/>
<path style="fill:none;stroke-width:1.2;stroke-linecap:butt;stroke-linejoin:miter;stroke:rgb(0%,0%,0%);stroke-opacity:1;stroke-miterlimit:10;" d="M 92.625 144.75 L 86.5625 177.875 "/>
<path style="fill:none;stroke-width:1.2;stroke-linecap:butt;stroke-linejoin:miter;stroke:rgb(0%,0%,0%);stroke-opacity:1;stroke-miterlimit:10;" d="M 92.625 144.75 L 124.34375 133.4375 "/>
<path style="fill:none;stroke-width:1.2;stroke-linecap:butt;stroke-linejoin:miter;stroke:rgb(0%,0%,0%);stroke-opacity:1;stroke-miterlimit:10;" d="M 86.5625 177.875 L 83.53125 194.4375 "/>
<path style="fill:none;stroke-width:1.2;stroke-linecap:butt;stroke-linejoin:miter;stroke:rgb(0%,0%,100%);stroke-opacity:1;stroke-miterlimit:10;" d="M 83.53125 194.4375 L 80.503906 211 "/>
<path style="fill:none;stroke-width:1.2;stroke-linecap:butt;stroke-linejoin:miter;stroke:rgb(0%,0%,0%);stroke-opacity:1;stroke-miterlimit:10;" d="M 78.164062 179.761719 L 75.738281 193.011719 "/>
<path style="fill:none;stroke-width:1.2;stroke-linecap:butt;stroke-linejoin:miter;stroke:rgb(0%,0%,100%);stroke-opacity:1;stroke-miterlimit:10;" d="M 75.738281 193.011719 L 73.3125 206.261719 "/>
<path style="fill:none;stroke-width:1.2;stroke-linecap:butt;stroke-linejoin:miter;stroke:rgb(0%,0%,0%);stroke-opacity:1;stroke-miterlimit:10;" d="M 93.75 182.613281 L 91.328125 195.863281 "/>
<path style="fill:none;stroke-width:1.2;stroke-linecap:butt;stroke-linejoin:miter;stroke:rgb(0%,0%,100%);stroke-opacity:1;stroke-miterlimit:10;" d="M 91.328125 195.863281 L 88.902344 209.117188 "/>
<path style=" stroke:none;fill-rule:nonzero;fill:rgb(100%,100%,100%);fill-opacity:1;" d="M 75.503906 203 L 85.503906 203 L 85.503906 219 L 75.503906 219 Z M 75.503906 203 "/>
<g style="fill:rgb(0%,0%,100%);fill-opacity:1;">
  <use xlink:href="#glyph0-1" x="75.503906" y="215.375977"/>
</g>
<path style="fill:none;stroke-width:1.2;stroke-linecap:butt;stroke-linejoin:miter;stroke:rgb(0%,0%,0%);stroke-opacity:1;stroke-miterlimit:10;" d="M 128.242188 134.148438 L 131.269531 117.585938 "/>
<path style="fill:none;stroke-width:1.2;stroke-linecap:butt;stroke-linejoin:miter;stroke:rgb(100%,0%,0%);stroke-opacity:1;stroke-miterlimit:10;" d="M 131.269531 117.585938 L 134.300781 101.023438 "/>
<path style="fill:none;stroke-width:1.2;stroke-linecap:butt;stroke-linejoin:miter;stroke:rgb(0%,0%,0%);stroke-opacity:1;stroke-miterlimit:10;" d="M 120.445312 132.722656 L 123.476562 116.160156 "/>
<path style="fill:none;stroke-width:1.2;stroke-linecap:butt;stroke-linejoin:miter;stroke:rgb(100%,0%,0%);stroke-opacity:1;stroke-miterlimit:10;" d="M 123.476562 116.160156 L 126.507812 99.597656 "/>
<path style="fill:none;stroke-width:1.2;stroke-linecap:butt;stroke-linejoin:miter;stroke:rgb(0%,0%,0%);stroke-opacity:1;stroke-miterlimit:10;" d="M 124.34375 133.4375 L 137.171875 144.34375 "/>
<path style="fill:none;stroke-width:1.2;stroke-linecap:butt;stroke-linejoin:miter;stroke:rgb(0%,0%,100%);stroke-opacity:1;stroke-miterlimit:10;" d="M 137.171875 144.34375 L 150 155.25 "/>
<path style=" stroke:none;fill-rule:nonzero;fill:rgb(100%,100%,100%);fill-opacity:1;" d="M 125.40625 92.3125 L 136.40625 92.3125 L 136.40625 108.3125 L 125.40625 108.3125 Z M 125.40625 92.3125 "/>
<g style="fill:rgb(100%,0%,0%);fill-opacity:1;">
  <use xlink:href="#glyph0-2" x="125.40625" y="104.688477"/>
</g>
<path style="fill:none;stroke-width:1.2;stroke-linecap:butt;stroke-linejoin:miter;stroke:rgb(0%,0%,100%);stroke-opacity:1;stroke-miterlimit:10;" d="M 150 155.25 L 165.859375 149.59375 "/>
<path style="fill:none;stroke-width:1.2;stroke-linecap:butt;stroke-linejoin:miter;stroke:rgb(0%,0%,0%);stroke-opacity:1;stroke-miterlimit:10;" d="M 165.859375 149.59375 L 181.71875 143.9375 "/>
<path style=" stroke:none;fill-rule:nonzero;fill:rgb(100%,100%,100%);fill-opacity:1;" d="M 140 147.25 L 160 147.25 L 160 163.25 L 140 163.25 Z M 140 147.25 "/>
<g style="fill:rgb(0%,0%,100%);fill-opacity:1;">
  <use xlink:href="#glyph0-1" x="140" y="159.625977"/>
  <use xlink:href="#glyph0-3" x="149.969727" y="159.625977"/>
</g>
<path style="fill:none;stroke-width:1.2;stroke-linecap:butt;stroke-linejoin:miter;stroke:rgb(0%,0%,0%);stroke-opacity:1;stroke-miterlimit:10;" d="M 181.71875 143.9375 L 187.78125 110.808594 "/>
<path style="fill:none;stroke-width:1.2;stroke-linecap:butt;stroke-linejoin:miter;stroke:rgb(0%,0%,0%);stroke-opacity:1;stroke-miterlimit:10;" d="M 190.117188 142.050781 L 194.96875 115.550781 "/>
<path style="fill:none;stroke-width:1.2;stroke-linecap:butt;stroke-linejoin:miter;stroke:rgb(0%,0%,0%);stroke-opacity:1;stroke-miterlimit:10;" d="M 207.375 165.746094 L 181.71875 143.9375 "/>
<path style="fill:none;stroke-width:1.2;stroke-linecap:butt;stroke-linejoin:miter;stroke:rgb(0%,0%,0%);stroke-opacity:1;stroke-miterlimit:10;" d="M 187.78125 110.808594 L 219.496094 99.496094 "/>
<path style="fill:none;stroke-width:1.2;stroke-linecap:butt;stroke-linejoin:miter;stroke:rgb(0%,0%,0%);stroke-opacity:1;stroke-miterlimit:10;" d="M 187.78125 110.808594 L 174.949219 99.902344 "/>
<path style="fill:none;stroke-width:1.2;stroke-linecap:butt;stroke-linejoin:miter;stroke:rgb(50%,30%,10%);stroke-opacity:1;stroke-miterlimit:10;" d="M 174.949219 99.902344 L 162.121094 89 "/>
<path style="fill:none;stroke-width:1.2;stroke-linecap:butt;stroke-linejoin:miter;stroke:rgb(0%,0%,0%);stroke-opacity:1;stroke-miterlimit:10;" d="M 219.496094 99.496094 L 245.15625 121.308594 "/>
<path style="fill:none;stroke-width:1.2;stroke-linecap:butt;stroke-linejoin:miter;stroke:rgb(0%,0%,0%);stroke-opacity:1;stroke-miterlimit:10;" d="M 216.929688 107.714844 L 237.457031 125.164062 "/>
<path style="fill:none;stroke-width:1.2;stroke-linecap:butt;stroke-linejoin:miter;stroke:rgb(0%,0%,0%);stroke-opacity:1;stroke-miterlimit:10;" d="M 245.15625 121.308594 L 239.09375 154.433594 "/>
<path style="fill:none;stroke-width:1.2;stroke-linecap:butt;stroke-linejoin:miter;stroke:rgb(0%,0%,0%);stroke-opacity:1;stroke-miterlimit:10;" d="M 239.09375 154.433594 L 207.375 165.746094 "/>
<path style="fill:none;stroke-width:1.2;stroke-linecap:butt;stroke-linejoin:miter;stroke:rgb(0%,0%,0%);stroke-opacity:1;stroke-miterlimit:10;" d="M 233.257812 148.101562 L 207.886719 157.152344 "/>
<path style="fill:none;stroke-width:1.2;stroke-linecap:butt;stroke-linejoin:miter;stroke:rgb(0%,0%,0%);stroke-opacity:1;stroke-miterlimit:10;" d="M 239.09375 154.433594 L 251.921875 165.339844 "/>
<path style="fill:none;stroke-width:1.2;stroke-linecap:butt;stroke-linejoin:miter;stroke:rgb(50%,30%,10%);stroke-opacity:1;stroke-miterlimit:10;" d="M 251.921875 165.339844 L 264.75 176.246094 "/>
<path style=" stroke:none;fill-rule:nonzero;fill:rgb(100%,100%,100%);fill-opacity:1;" d="M 257.75 168.246094 L 272.75 168.246094 L 272.75 184.246094 L 257.75 184.246094 Z M 257.75 168.246094 "/>
<g style="fill:rgb(50%,30%,10%);fill-opacity:1;">
  <use xlink:href="#glyph0-4" x="257.75" y="180.62207"/>
  <use xlink:href="#glyph0-5" x="266.893555" y="180.62207"/>
</g>
<path style=" stroke:none;fill-rule:nonzero;fill:rgb(100%,100%,100%);fill-opacity:1;" d="M 147.121094 81 L 162.121094 81 L 162.121094 97 L 147.121094 97 Z M 147.121094 81 "/>
<g style="fill:rgb(50%,30%,10%);fill-opacity:1;">
  <use xlink:href="#glyph0-4" x="147.121094" y="93.375977"/>
  <use xlink:href="#glyph0-5" x="156.264648" y="93.375977"/>
</g>
<path style=" stroke:none;fill-rule:nonzero;fill:rgb(100%,100%,100%);fill-opacity:1;" d="M 14.25 126.253906 L 35.25 126.253906 L 35.25 142.253906 L 14.25 142.253906 Z M 14.25 126.253906 "/>
<g style="fill:rgb(100%,0%,0%);fill-opacity:1;">
  <use xlink:href="#glyph0-3" x="14.25" y="138.629883"/>
  <use xlink:href="#glyph0-2" x="24.272461" y="138.629883"/>
</g>
</g>
</svg>

<svg xmlns="http://www.w3.org/2000/svg" xmlns:xlink="http://www.w3.org/1999/xlink" width="300pt" height="300pt" viewBox="0 0 300 300"><defs><symbol overflow="visible"><path d="M.64 2.297v-11.47h6.5v11.47zm.735-.72h5.047V-8.436H1.375zm0 0"/></symbol><symbol overflow="visible" id="a"><path d="M1.28-9.484H3l4.203 7.937v-7.937h1.25V0H6.72L2.515-7.922V0H1.28zm0 0"/></symbol><symbol overflow="visible" id="b"><path d="M5.125-8.61c-.938 0-1.684.352-2.234 1.047-.542.688-.812 1.633-.812 2.83 0 1.198.27 2.147.813 2.842.55.687 1.297 1.03 2.235 1.03.926 0 1.66-.343 2.203-1.03.55-.696.828-1.645.828-2.844 0-1.196-.277-2.14-.828-2.829-.543-.695-1.277-1.046-2.203-1.046zm0-1.046c1.32 0 2.38.45 3.172 1.344.8.898 1.203 2.09 1.203 3.578 0 1.5-.402 2.7-1.203 3.593C7.504-.255 6.445.186 5.125.186c-1.336 0-2.402-.44-3.203-1.328C1.13-2.036.734-3.235.734-4.735c0-1.49.395-2.68 1.188-3.579.8-.894 1.867-1.343 3.203-1.343zm0 0"/></symbol><symbol overflow="visible" id="c"><path d="M1.28-9.484h1.282v3.89H7.22v-3.89H8.5V0H7.22v-4.516H2.562V0H1.28zm0 0"/></symbol><symbol overflow="visible" id="d"><path d="M2.563-4.53v3.483h2.046c.695 0 1.206-.14 1.53-.422.333-.288.5-.733.5-1.327s-.167-1.03-.5-1.312c-.324-.28-.835-.42-1.53-.42zm0-3.892v2.86h1.89c.625 0 1.086-.114 1.39-.344.313-.24.47-.602.47-1.094 0-.477-.157-.832-.47-1.063-.304-.238-.765-.36-1.39-.36zM1.28-9.484h3.267c.976 0 1.734.203 2.266.61.53.405.796.983.796 1.733 0 .585-.137 1.046-.407 1.39-.273.344-.672.56-1.203.64.633.137 1.125.42 1.47.844.35.43.53.965.53 1.61 0 .844-.293 1.5-.875 1.97C6.55-.227 5.735 0 4.672 0h-3.39zm0 0"/></symbol><symbol overflow="visible" id="e"><path d="M5.344-6.016c-.137-.07-.282-.125-.438-.156-.148-.04-.312-.062-.5-.062-.656 0-1.164.214-1.515.64-.355.43-.53 1.043-.53 1.844V0H1.187v-7.11h1.17V-6c.24-.438.556-.758.954-.97.395-.206.876-.31 1.438-.31.082 0 .172.007.266.014.093.012.203.028.328.047zm0 0"/></symbol></defs><g><path fill="#fff" d="M0 0h300v300H0z"/><path d="M73.03 89.813l-6.06 33.124M66.97 122.938l25.655 21.812M64.402 131.156l20.524 17.45M66.97 122.938l-15.86 5.656" stroke-width="1.2" stroke="#000" stroke-miterlimit="10" fill="none"/><path d="M51.11 128.594l-15.86 5.66" stroke-width="1.2" stroke="#f00" stroke-miterlimit="10" fill="none"/><path d="M92.625 144.75l-6.063 33.125M92.625 144.75l31.72-11.313M86.563 177.875l-3.032 16.563" stroke-width="1.2" stroke="#000" stroke-miterlimit="10" fill="none"/><path d="M83.53 194.438L80.505 211" stroke-width="1.2" stroke="#00f" stroke-miterlimit="10" fill="none"/><path d="M78.164 179.762l-2.426 13.25" stroke-width="1.2" stroke="#000" stroke-miterlimit="10" fill="none"/><path d="M75.738 193.012l-2.425 13.25" stroke-width="1.2" stroke="#00f" stroke-miterlimit="10" fill="none"/><path d="M93.75 182.613l-2.422 13.25" stroke-width="1.2" stroke="#000" stroke-miterlimit="10" fill="none"/><path d="M91.328 195.863l-2.426 13.254" stroke-width="1.2" stroke="#00f" stroke-miterlimit="10" fill="none"/><path d="M75.504 203h10v16h-10zm0 0" fill="#fff"/><use xlink:href="#a" x="75.504" y="215.376" fill="#00f"/><path d="M128.242 134.148l3.028-16.562" stroke-width="1.2" stroke="#000" stroke-miterlimit="10" fill="none"/><path d="M131.27 117.586l3.03-16.563" stroke-width="1.2" stroke="#f00" stroke-miterlimit="10" fill="none"/><path d="M120.445 132.723l3.032-16.563" stroke-width="1.2" stroke="#000" stroke-miterlimit="10" fill="none"/><path d="M123.477 116.16l3.03-16.562" stroke-width="1.2" stroke="#f00" stroke-miterlimit="10" fill="none"/><path d="M124.344 133.438l12.828 10.906" stroke-width="1.2" stroke="#000" stroke-miterlimit="10" fill="none"/><path d="M137.172 144.344L150 155.25" stroke-width="1.2" stroke="#00f" stroke-miterlimit="10" fill="none"/><path d="M125.406 92.313h11v16h-11zm0 0" fill="#fff"/><use xlink:href="#b" x="125.406" y="104.688" fill="#f00"/><path d="M150 155.25l15.86-5.656" stroke-width="1.2" stroke="#00f" stroke-miterlimit="10" fill="none"/><path d="M165.86 149.594l15.86-5.656" stroke-width="1.2" stroke="#000" stroke-miterlimit="10" fill="none"/><path d="M140 147.25h20v16h-20zm0 0" fill="#fff"/><g fill="#00f"><use xlink:href="#a" x="140" y="159.626"/><use xlink:href="#c" x="149.97" y="159.626"/></g><path d="M181.72 143.938l6.06-33.13M190.117 142.05l4.852-26.5M207.375 165.746l-25.656-21.81M187.78 110.81l31.716-11.314M187.78 110.81L174.95 99.9" stroke-width="1.2" stroke="#000" stroke-miterlimit="10" fill="none"/><path d="M174.95 99.902L162.12 89" stroke-width="1.2" stroke="#7f4d1a" stroke-miterlimit="10" fill="none"/><path d="M219.496 99.496l25.66 21.813M216.93 107.715l20.527 17.45M245.156 121.31l-6.062 33.124M239.094 154.434l-31.72 11.312M233.258 148.102l-25.37 9.05M239.094 154.434l12.828 10.906" stroke-width="1.2" stroke="#000" stroke-miterlimit="10" fill="none"/><path d="M251.922 165.34l12.828 10.906" stroke-width="1.2" stroke="#7f4d1a" stroke-miterlimit="10" fill="none"/><path d="M257.75 168.246h15v16h-15zm0 0" fill="#fff"/><g fill="#7f4d1a"><use xlink:href="#d" x="257.75" y="180.622"/><use xlink:href="#e" x="266.894" y="180.622"/></g><path d="M147.12 81h15v16h-15zm0 0" fill="#fff"/><g fill="#7f4d1a"><use xlink:href="#d" x="147.121" y="93.376"/><use xlink:href="#e" x="156.265" y="93.376"/></g><path d="M14.25 126.254h21v16h-21zm0 0" fill="#fff"/><g fill="#f00"><use xlink:href="#c" x="14.25" y="138.63"/><use xlink:href="#b" x="24.272" y="138.63"/></g></g></svg>
